src/symbolic/devices/laptop-symbolic.svg

<svg xmlns="http://www.w3.org/2000/svg" width="16" height="16"><path d="M2 2C1 2 1 3 1 3v9s0 1 1 1h12s1 0 1-1V3s0-1-1-1zm1 2h10v7H3zM0 14v1h16v-1c0-1-1-1-1-1H1s-1 0-1 1z" fill="#444"/></svg>

<svg xmlns="http://www.w3.org/2000/svg" width="16" height="16" version="1.1">
 <path style="fill:#444444" d="M 2,2 C 1,2 1,3 1,3 V 12 C 1,12 1,13 2,13 H 14 C 14,13 15,13 15,12 V 3 C 15,3 15,2 14,2 Z M 3,4 H 13 V 11 H 3 Z M 0,14 V 15 H 16 V 14 C 16,13 15,13 15,13 H 1 C 1,13 0,13 0,14 Z"/>
</svg>
